build/service/MenuOutline.svg

<svg xmlns="http://www.w3.org/2000/svg" fill="none" viewBox="0 0 24 24" focusable="false"><path d="M0 0H24V24H0z"/><path fill="#74767B" fill-rule="evenodd" d="M4.64365 5.09863C4.28467 5.09863 3.99365 5.38965 3.99365 5.74863C3.99365 6.10762 4.28467 6.39863 4.64365 6.39863L19.3562 6.39863C19.7152 6.39863 20.0062 6.10762 20.0062 5.74863C20.0062 5.38965 19.7152 5.09863 19.3562 5.09863L4.64365 5.09863ZM4.64369 11.35C4.28471 11.35 3.99369 11.641 3.99369 12C3.99369 12.359 4.28471 12.65 4.64369 12.65L19.3562 12.65C19.7152 12.65 20.0062 12.359 20.0062 12C20.0062 11.641 19.7152 11.35 19.3562 11.35L4.64369 11.35ZM3.99365 18.3648C3.99365 18.0059 4.28467 17.7148 4.64365 17.7148L19.3562 17.7148C19.7152 17.7148 20.0062 18.0059 20.0062 18.3648C20.0062 18.7238 19.7152 19.0148 19.3562 19.0148L4.64365 19.0148C4.28467 19.0148 3.99365 18.7238 3.99365 18.3648Z"/></svg>

<svg xmlns="http://www.w3.org/2000/svg" fill="none" viewBox="0 0 24 24" focusable="false"><path fill="#74767B" fill-rule="evenodd" d="M3.99 5.74c0-.36.29-.65.65-.65h14.71c.36 0 .65.29.65.65s-.29.65-.65.65H4.64c-.36 0-.65-.29-.65-.65m.65 5.61c-.36 0-.65.29-.65.65 0 .35.29.65.65.65h14.71c.36 0 .65-.3.65-.65 0-.36-.29-.65-.65-.65zm-.65 7.01c0-.36.29-.65.65-.65h14.71c.36 0 .65.29.65.65s-.29.65-.65.65H4.64c-.36 0-.65-.29-.65-.65"/></svg>
